X:1
T: The Braes of Newe
C:Alexander Walker
R:Strathspey
Q:128
K:F
M:4/4
L:1/16
|:C2|F3G A3F DF3 C4|F3G A3F DG3 G4|F3G A3F Ac3 d4|cf3 a3g f4 f2C2|
F3G A3F DF3 C4|F3G A3F DG3 G4|F3G A3F Ac3 d4|cf3 a3g f4 f2a2|
b3g a3f g3f d4|dg3 g3f dg3 g3a|b3g a3f g3f d4|c3f a3g f4 f3c|
dB3 B3d c3A A3c|B3G A3F G3F D3E|F3A G3B A3c B3d|c3f a3g f4f2:|
